img/svg/logo_main.svg

<svg width="295" height="43" viewBox="0 0 295 43" fill="none" xmlns="http://www.w3.org/2000/svg">
<path fill-rule="evenodd" clip-rule="evenodd" d="M18.25 35C22.8167 35 26.3667 34.0083 28.9 32.025C31.4333 30.0417 32.7 27.2833 32.7 23.75C32.7 20.3833 31.5667 17.8 29.3 16C27.0333 14.2 23.7833 13.3 19.55 13.3H10.5V7.65H25L30 0H0.75V35H18.25ZM10.5 27.9V20.35H17.6C21 20.35 22.7 21.5833 22.7 24.05C22.7 25.2833 22.2667 26.2333 21.4 26.9C20.5333 27.5667 19.2667 27.9 17.6 27.9H10.5ZM47.7 25.85V35H37.8V0H53.8C56.9667 0 59.7167 0.525 62.05 1.575C64.3833 2.625 66.1833 4.125 67.45 6.075C68.7167 8.025 69.35 10.3167 69.35 12.95C69.35 15.5833 68.7167 17.8667 67.45 19.8C66.1833 21.7333 64.3833 23.225 62.05 24.275C59.7167 25.325 56.9667 25.85 53.8 25.85H47.7ZM47.7 18.05V7.8H53.2C55.2333 7.8 56.7667 8.25 57.8 9.15C58.8333 10.05 59.35 11.3167 59.35 12.95C59.35 14.5833 58.8333 15.8417 57.8 16.725C56.7667 17.6083 55.2333 18.05 53.2 18.05H47.7ZM97.55 14.5L83.15 35H73.8V0H83.55V20.55L98 0H107.3V35H97.55V14.5ZM124.55 35V7.85H136.4L140.45 0H114.8V35H124.55ZM147.35 28.2L144.6 35H134.5L149.95 0H159.7L175.2 35H164.9L162.15 28.2H147.35ZM150.25 20.9L154.75 9.7L159.25 20.9H150.25ZM185.75 35V42.05H181.65L176.65 27.15H177.9C179.967 27.1167 181.425 25.7 182.275 22.9C183.125 20.1 183.65 16.0667 183.85 10.8L184.25 0H212.45V27.15H217.2V42.05H208.15V35H185.75ZM202.7 27.15H189.45C190.417 25.75 191.133 23.75 191.6 21.15C192.067 18.55 192.367 15.3833 192.5 11.65L192.65 7.85H202.7V27.15ZM245.7 14.5L231.3 35H221.95V0H231.7V20.55L246.15 0H255.45V35H245.7V14.5ZM272.85 35V25.85H278.95C282.117 25.85 284.867 25.325 287.2 24.275C289.533 23.225 291.333 21.7333 292.6 19.8C293.867 17.8667 294.5 15.5833 294.5 12.95C294.5 10.3167 293.867 8.025 292.6 6.075C291.333 4.125 289.533 2.625 287.2 1.575C284.867 0.525 282.117 0 278.95 0H262.95V35H272.85ZM272.85 7.8V18.05H278.35C280.383 18.05 281.917 17.6083 282.95 16.725C283.983 15.8417 284.5 14.5833 284.5 12.95C284.5 11.3167 283.983 10.05 282.95 9.15C281.917 8.25 280.383 7.8 278.35 7.8H272.85Z" fill="white"/>
</svg>

<svg width="295" height="43" fill="none" xmlns="http://www.w3.org/2000/svg"><path fill-rule="evenodd" clip-rule="evenodd" d="M18.25 35c4.567 0 8.117-.992 10.65-2.975 2.533-1.983 3.8-4.742 3.8-8.275 0-3.367-1.133-5.95-3.4-7.75-2.267-1.8-5.517-2.7-9.75-2.7H10.5V7.65H25L30 0H.75v35h17.5zm-7.75-7.1v-7.55h7.1c3.4 0 5.1 1.233 5.1 3.7 0 1.233-.433 2.183-1.3 2.85-.867.667-2.133 1-3.8 1h-7.1zm37.2-2.05V35h-9.9V0h16c3.167 0 5.917.525 8.25 1.575 2.333 1.05 4.133 2.55 5.4 4.5 1.267 1.95 1.9 4.242 1.9 6.875s-.633 4.917-1.9 6.85c-1.267 1.933-3.067 3.425-5.4 4.475-2.333 1.05-5.083 1.575-8.25 1.575h-6.1zm0-7.8V7.8h5.5c2.033 0 3.567.45 4.6 1.35 1.033.9 1.55 2.167 1.55 3.8s-.517 2.892-1.55 3.775-2.567 1.325-4.6 1.325h-5.5zm49.85-3.55L83.15 35H73.8V0h9.75v20.55L98 0h9.3v35h-9.75V14.5zm27 20.5V7.85h11.85L140.45 0H114.8v35h9.75zm22.8-6.8L144.6 35h-10.1l15.45-35h9.75l15.5 35h-10.3l-2.75-6.8h-14.8zm2.9-7.3l4.5-11.2 4.5 11.2h-9zm35.5 14.1v7.05h-4.1l-5-14.9h1.25c2.067-.033 3.525-1.45 4.375-4.25.85-2.8 1.375-6.833 1.575-12.1l.4-10.8h28.2v27.15h4.75v14.9h-9.05V35h-22.4zm16.95-7.85h-13.25c.967-1.4 1.683-3.4 2.15-6 .467-2.6.767-5.767.9-9.5l.15-3.8h10.05v19.3zm43-12.65L231.3 35h-9.35V0h9.75v20.55L246.15 0h9.3v35h-9.75V14.5zM272.85 35v-9.15h6.1c3.167 0 5.917-.525 8.25-1.575 2.333-1.05 4.133-2.542 5.4-4.475 1.267-1.933 1.9-4.217 1.9-6.85s-.633-4.925-1.9-6.875c-1.267-1.95-3.067-3.45-5.4-4.5C284.867.525 282.117 0 278.95 0h-16v35h9.9zm0-27.2v10.25h5.5c2.033 0 3.567-.442 4.6-1.325 1.033-.883 1.55-2.142 1.55-3.775s-.517-2.9-1.55-3.8c-1.033-.9-2.567-1.35-4.6-1.35h-5.5z" fill="#fff"/></svg>
